vendor/shopware/storefront/Resources/app/storefront/dist/assets/icon/solid/checkmark-circle.svg

<svg xmlns="http://www.w3.org/2000/svg" width="16" height="16" viewBox="0 0 16 16">
  <path fill="#758CA3" fill-rule="evenodd" d="M8,16 C3.581722,16 0,12.418278 0,8 C0,3.581722 3.581722,0 8,0 C12.418278,0 16,3.581722 16,8 C16,12.418278 12.418278,16 8,16 Z M8,14 C11.3137085,14 14,11.3137085 14,8 C14,4.6862915 11.3137085,2 8,2 C4.6862915,2 2,4.6862915 2,8 C2,11.3137085 4.6862915,14 8,14 Z M5.70710678,7.29289322 L7,8.58578644 L10.2928932,5.29289322 C10.6834175,4.90236893 11.3165825,4.90236893 11.7071068,5.29289322 C12.0976311,5.68341751 12.0976311,6.31658249 11.7071068,6.70710678 L7.70710678,10.7071068 C7.31658249,11.0976311 6.68341751,11.0976311 6.29289322,10.7071068 L4.29289322,8.70710678 C3.90236893,8.31658249 3.90236893,7.68341751 4.29289322,7.29289322 C4.68341751,6.90236893 5.31658249,6.90236893 5.70710678,7.29289322 Z"/>
</svg>

<svg xmlns="http://www.w3.org/2000/svg" width="16" height="16" viewBox="0 0 16 16"><path fill="#758CA3" fill-rule="evenodd" d="M8 16c-4.4183 0-8-3.5817-8-8s3.5817-8 8-8 8 3.5817 8 8-3.5817 8-8 8zm0-2c3.3137 0 6-2.6863 6-6s-2.6863-6-6-6-6 2.6863-6 6 2.6863 6 6 6zM5.7071 7.2929 7 8.5858l3.2929-3.293c.3905-.3904 1.0237-.3904 1.4142 0 .3905.3906.3905 1.0238 0 1.4143l-4 4c-.3905.3905-1.0237.3905-1.4142 0l-2-2c-.3905-.3905-.3905-1.0237 0-1.4142.3905-.3905 1.0237-.3905 1.4142 0z"/></svg>
